X: 15409
T: Gleanntan Glas Gaoith Dobhair
R: waltz
M: 3/4
K: Cmajor
G2|d3 e f2|d4 G2|d3 B d2|c2 B2 G2|
F3 E F2|G4 G2|G6|G4 g2|
e3 d c2|d4 e f|g2 g2 fe|d4 g2|
f3 e d2|c2 G2 A2|F6|F4 g2|
e3 d c2|d4 e f|g2 g2 fe|d4 g2|
f3 e d2|c2 G2 A2|F6|F4 G2|
d3 e f2|d4 G2|d3 B d2|c2 B2 G2|
F3 E F2|G4 G2|G6|G4 z2|

